build/category/DumpSolid.svg

<svg xmlns="http://www.w3.org/2000/svg" fill="none" viewBox="0 0 24 24" focusable="false"><path d="M0 0H24V24H0z" transform="matrix(-1 0 0 1 24 0)"/><path fill="#74767B" fill-rule="evenodd" d="M16.3169 6.5052L18.6283 10.5087C18.8391 9.92133 18.954 9.28826 18.954 8.62836C18.954 5.55496 16.4625 3.06348 13.3891 3.06348C11.1402 3.06348 9.20287 4.3975 8.32527 6.31738L11.1467 6.31738C11.8923 6.31738 12.4967 6.9218 12.4967 7.66738L12.4967 9.07197L13.9786 6.5052C14.4982 5.6052 15.7973 5.6052 16.3169 6.5052ZM15.1045 7.1552C15.1118 7.14249 15.118 7.13838 15.1219 7.13622C15.1275 7.13308 15.1365 7.1302 15.1478 7.1302C15.1591 7.1302 15.168 7.13308 15.1737 7.13622C15.1776 7.13838 15.1837 7.14249 15.1911 7.1552L18.5487 12.9708C18.556 12.9835 18.5565 12.9909 18.5564 12.9954C18.5563 13.0018 18.5544 13.011 18.5487 13.0208C18.5431 13.0306 18.5361 13.0369 18.5306 13.0402C18.5267 13.0425 18.5201 13.0458 18.5054 13.0458L11.7901 13.0458C11.7755 13.0458 11.7688 13.0425 11.765 13.0402C11.7594 13.0369 11.7525 13.0306 11.7468 13.0208C11.7412 13.011 11.7392 13.0018 11.7391 12.9954C11.739 12.9909 11.7395 12.9835 11.7468 12.9708L15.1045 7.1552ZM10.4391 13.0458L5.81831 13.0458C5.7907 13.0458 5.76831 13.0234 5.76831 12.9958L5.76831 7.66738C5.76831 7.63977 5.7907 7.61738 5.81831 7.61738L11.1467 7.61738C11.1743 7.61738 11.1967 7.63977 11.1967 7.66738L11.1967 11.3236L10.621 12.3208C10.4857 12.5552 10.4297 12.8048 10.4391 13.0458ZM4.21089 14.5362C4.33278 14.4143 4.49812 14.3458 4.67051 14.3458L19.4322 14.3458C19.7912 14.3458 20.0822 14.6368 20.0822 14.9958L20.0822 16.9076C20.0822 18.6473 18.6719 20.0576 16.9322 20.0576L7.17053 20.0576C5.43085 20.0576 4.02055 18.6474 4.02053 16.9077L4.02051 14.9958C4.02051 14.8234 4.08899 14.6581 4.21089 14.5362Z"/></svg>

<svg xmlns="http://www.w3.org/2000/svg" fill="none" viewBox="0 0 24 24" focusable="false"><path fill="#74767B" fill-rule="evenodd" d="m18.62 10.5-2.31-4c-.52-.9-1.82-.9-2.34 0l-1.48 2.57V7.66c0-.74-.6-1.35-1.35-1.35H8.32a5.569 5.569 0 0 1 10.63 2.31c0 .66-.12 1.3-.33 1.88M15.1 7.15c.01-.01.01-.02.02-.02h.05l.02.02 3.35 5.82c.01.01.01.02.01.02 0 .01 0 .02-.01.03 0 .01-.01.01-.01.02h-6.77l-.02-.02c0-.01-.01-.02-.01-.03 0 0 0-.01.01-.02zm-4.67 5.89H5.81c-.02 0-.05-.02-.05-.05V7.66c0-.03.03-.05.05-.05h5.33c.03 0 .05.02.05.05v3.66l-.57 1c-.14.23-.2.48-.19.72m-6.22 1.49c.12-.12.28-.19.46-.19h14.76c.36 0 .65.29.65.65v1.91a3.15 3.15 0 0 1-3.15 3.15H7.17a3.15 3.15 0 0 1-3.15-3.15v-1.91c0-.17.06-.34.19-.46"/></svg>
